tools/download-figma-icons/icons/outlined-large/pen.svg

<svg width="64" height="64" viewBox="0 0 64 64" fill="none" xmlns="http://www.w3.org/2000/svg">
<path fill-rule="evenodd" clip-rule="evenodd" d="M42.7192 11.4097C42.1742 10.8647 41.2852 10.8647 40.7402 11.4097L38.3892 13.7607L43.4632 18.8337L45.8132 16.4827C46.3582 15.9367 46.3582 15.0497 45.8132 14.5047L42.7192 11.4097ZM17.5642 39.6577L20.1012 42.1937L41.3422 20.9547L36.2682 15.8817L15.0282 37.1217L17.5642 39.6577ZM15.4432 41.7787L13.5842 39.9197L11.8222 45.4007L17.3032 43.6387L15.4432 41.7787ZM9.95921 49.1497C9.80821 49.1987 9.65321 49.2227 9.50021 49.2227C9.10821 49.2227 8.72421 49.0687 8.43921 48.7827C8.04221 48.3857 7.89921 47.7987 8.07221 47.2637L11.4792 36.6627C11.4819 36.6541 11.486 36.647 11.4901 36.6398C11.4937 36.6335 11.4974 36.6271 11.5002 36.6197C11.5312 36.5307 11.5712 36.4447 11.6202 36.3637C11.6254 36.3551 11.6296 36.3461 11.6338 36.3373C11.6393 36.3255 11.6448 36.314 11.6522 36.3037C11.7092 36.2167 11.7722 36.1357 11.8462 36.0607L35.2082 12.6997L38.6192 9.28869C40.3342 7.57369 43.1252 7.57369 44.8402 9.28869L47.9342 12.3837C49.6492 14.0977 49.6492 16.8887 47.9352 18.6037L44.5232 22.0147L21.1622 45.3757C21.1556 45.3823 21.1479 45.3864 21.1401 45.3905C21.1326 45.3944 21.1251 45.3983 21.1182 45.4047C21.0042 45.5127 20.8722 45.5977 20.7262 45.6647C20.7125 45.671 20.6993 45.6777 20.6861 45.6844C20.6655 45.6948 20.6451 45.7052 20.6232 45.7137C20.6132 45.7173 20.6039 45.7223 20.5947 45.7272C20.5837 45.733 20.5727 45.7389 20.5602 45.7427L9.95921 49.1497ZM9.49951 54.1929H53.5185C54.3465 54.1929 55.0185 54.8649 55.0185 55.6929C55.0185 56.5209 54.3465 57.1929 53.5185 57.1929H9.49951C8.67151 57.1929 7.99951 56.5209 7.99951 55.6929C7.99951 54.8649 8.67151 54.1929 9.49951 54.1929Z" fill="black"/>
</svg>

<svg width="64" height="64" viewBox="0 0 64 64" fill="none" xmlns="http://www.w3.org/2000/svg"><path fill-rule="evenodd" clip-rule="evenodd" d="M42.72 11.41a1.402 1.402 0 0 0-1.98 0l-2.35 2.35 5.073 5.074 2.35-2.351a1.4 1.4 0 0 0 0-1.978L42.72 11.41ZM17.563 39.658l2.537 2.536 21.241-21.24-5.074-5.072-21.24 21.24 2.536 2.536Zm-2.12 2.12-1.86-1.858-1.762 5.48 5.481-1.761-1.86-1.86ZM9.958 49.15a1.498 1.498 0 0 1-1.887-1.886l3.407-10.601c.003-.009.007-.016.011-.023l.01-.02c.031-.09.071-.175.12-.256l.014-.027a1.555 1.555 0 0 1 .212-.277L35.208 12.7l3.411-3.411a4.404 4.404 0 0 1 6.221 0l3.094 3.095a4.404 4.404 0 0 1 .001 6.22l-3.412 3.41-23.36 23.362a.086.086 0 0 1-.023.015.094.094 0 0 0-.022.014 1.432 1.432 0 0 1-.392.26l-.04.02a.741.741 0 0 1-.091.042c-.011.006-.022.012-.035.016L9.96 49.15Zm-.46 5.043h44.02a1.5 1.5 0 0 1 0 3H9.498a1.5 1.5 0 0 1 0-3Z" fill="currentColor"/></svg>
